img/prev.svg

<svg width="21" height="33" viewBox="0 0 21 33" fill="none" xmlns="http://www.w3.org/2000/svg">
<path d="M1.02734 14.5898C0.148438 15.5664 0.148438 17.0312 1.02734 17.9102L14.3086 31.1914C15.2852 32.168 16.75 32.168 17.6289 31.1914L19.875 29.043C20.7539 28.0664 20.7539 26.6016 19.875 25.7227L10.4023 16.25L19.875 6.875C20.7539 5.99609 20.7539 4.43359 19.875 3.55469L17.6289 1.30859C16.75 0.429688 15.2852 0.429688 14.3086 1.30859L1.02734 14.5898Z" fill="#A1A1A1"/>
</svg>

<svg width="21" height="33" fill="none" xmlns="http://www.w3.org/2000/svg"><path d="M1.027 14.59c-.879.976-.879 2.441 0 3.32L14.31 31.191c.976.977 2.441.977 3.32 0l2.246-2.148c.879-.977.879-2.441 0-3.32l-9.473-9.473 9.473-9.375c.879-.879.879-2.441 0-3.32L17.63 1.309c-.879-.88-2.344-.88-3.32 0L1.027 14.589z" fill="#A1A1A1"/></svg>
